X: 35780
T: Sally In The Garden
R: barndance
M: 4/4
K: Dminor
|:DFED A,2[EA,]2|[FA,]2[FA,]2 [EA,]2[EA,]2|DFED A,2=B,2|C=B,CD EDC2|
DFED A,2[EA,]2|[FA,]2G2 A4|A3B AGE2|F3G FECA,|1 D4 D4:|2 D4 D2||
|:DE|FEDE FEDE|F2G2 A2DE|FEDE F2G2|AGEF D2DE|
FEDE FEDE|F2G2 A4|A3B AGE2|F3G FECA,|D4 D2:|
"Alt 7, 17" A2AB AGE2|"Alt 8, 18" FEFG FEC2|

